X: 242
T: Katydid
B: canberra pickers and fiddlers
B: tunes
M:4/4
L:1/8
R: reel
Q: 1/4=136
K:C
V:1 
|:"C"{d/}e4cdcA|GAGE DCA,C|G,A,CD EGAB|"C"cdeg "G"a2g2|
"C"{d/}e4cdcA|GAGE DCA,C|G,A,CD EGAB|1"G"dc-c2 "C"c4:|2"G"dc-c2 "C"c2 eg||
|:"Am"abag edeg|abag e2eg|abag egag|"C"ec-c2 c2 eg|
"Am"abag edeg|abag e4|c'4 gagf|"C"ec-c2 c4:|
% abcbook-tune_id 63ae8f1c0993bf7d1312d706
% abcbook-tune_composer_id 
% abcbook-link-0 https://www.youtube.com/watch?v=6rIq5bRdWMg
% abcbook-boost 0
% abcbook-difficulty 1
% abcbook-tags canberra pickers and fiddlers,old time tunes,steve ryan,test,© free
% abcbook-tablature 
% abcbook-transpose 
% abcbook-tuning GDAE
% abcbook-lastupdated 1705707796339
% abcbook-src-url https://tunebook.net/scrape/tunes.abc
% abcbook-soundfonts 
% abcbook-repeats 1


